src/images/icons/tiktok.svg

<svg xmlns="http://www.w3.org/2000/svg"  viewBox="0 0 50 50" width="40px" height="40px"><path d="M 9 4 C 6.2495759 4 4 6.2495759 4 9 L 4 41 C 4 43.750424 6.2495759 46 9 46 L 41 46 C 43.750424 46 46 43.750424 46 41 L 46 9 C 46 6.2495759 43.750424 4 41 4 L 9 4 z M 9 6 L 41 6 C 42.671576 6 44 7.3284241 44 9 L 44 41 C 44 42.671576 42.671576 44 41 44 L 9 44 C 7.3284241 44 6 42.671576 6 41 L 6 9 C 6 7.3284241 7.3284241 6 9 6 z M 26.042969 10 A 1.0001 1.0001 0 0 0 25.042969 10.998047 C 25.042969 10.998047 25.031984 15.873262 25.021484 20.759766 C 25.016184 23.203017 25.009799 25.64879 25.005859 27.490234 C 25.001922 29.331679 25 30.496833 25 30.59375 C 25 32.409009 23.351421 33.892578 21.472656 33.892578 C 19.608867 33.892578 18.121094 32.402853 18.121094 30.539062 C 18.121094 28.675273 19.608867 27.1875 21.472656 27.1875 C 21.535796 27.1875 21.663054 27.208245 21.880859 27.234375 A 1.0001 1.0001 0 0 0 23 26.240234 L 23 22.039062 A 1.0001 1.0001 0 0 0 22.0625 21.041016 C 21.906673 21.031216 21.710581 21.011719 21.472656 21.011719 C 16.223131 21.011719 11.945313 25.289537 11.945312 30.539062 C 11.945312 35.788589 16.223131 40.066406 21.472656 40.066406 C 26.72204 40.066409 31 35.788588 31 30.539062 L 31 21.490234 C 32.454611 22.653646 34.267517 23.390625 36.269531 23.390625 C 36.542588 23.390625 36.802305 23.374442 37.050781 23.351562 A 1.0001 1.0001 0 0 0 37.958984 22.355469 L 37.958984 17.685547 A 1.0001 1.0001 0 0 0 37.03125 16.6875 C 33.886609 16.461891 31.379838 14.012216 31.052734 10.896484 A 1.0001 1.0001 0 0 0 30.058594 10 L 26.042969 10 z M 27.041016 12 L 29.322266 12 C 30.049047 15.2987 32.626734 17.814404 35.958984 18.445312 L 35.958984 21.310547 C 33.820114 21.201935 31.941489 20.134948 30.835938 18.453125 A 1.0001 1.0001 0 0 0 29 19.003906 L 29 30.539062 C 29 34.707538 25.641273 38.066406 21.472656 38.066406 C 17.304181 38.066406 13.945312 34.707538 13.945312 30.539062 C 13.945312 26.538539 17.066083 23.363182 21 23.107422 L 21 25.283203 C 18.286416 25.535721 16.121094 27.762246 16.121094 30.539062 C 16.121094 33.483274 18.528445 35.892578 21.472656 35.892578 C 24.401892 35.892578 27 33.586491 27 30.59375 C 27 30.64267 27.001859 29.335571 27.005859 27.494141 C 27.009759 25.65271 27.016224 23.20692 27.021484 20.763672 C 27.030884 16.376775 27.039186 12.849206 27.041016 12 z"/></svg>

<svg xmlns="http://www.w3.org/2000/svg" xmlns:xlink="http://www.w3.org/1999/xlink" viewBox="0,0,256,256" width="40px" height="40px" fill-rule="nonzero"><g fill="#cfcfcf" fill-rule="nonzero" stroke="none" stroke-width="1" stroke-linecap="butt" stroke-linejoin="miter" stroke-miterlimit="10" stroke-dasharray="" stroke-dashoffset="0" font-family="none" font-weight="none" font-size="none" text-anchor="none" style="mix-blend-mode: normal"><g transform="scale(5.12,5.12)"><path d="M9,4c-2.75042,0 -5,2.24958 -5,5v32c0,2.75042 2.24958,5 5,5h32c2.75042,0 5,-2.24958 5,-5v-32c0,-2.75042 -2.24958,-5 -5,-5zM9,6h32c1.67158,0 3,1.32842 3,3v32c0,1.67158 -1.32842,3 -3,3h-32c-1.67158,0 -3,-1.32842 -3,-3v-32c0,-1.67158 1.32842,-3 3,-3zM26.04297,10c-0.5515,0.00005 -0.99887,0.44655 -1,0.99805c0,0 -0.01098,4.87522 -0.02148,9.76172c-0.0053,2.44325 -0.01168,4.88902 -0.01562,6.73047c-0.00394,1.84145 -0.00586,3.0066 -0.00586,3.10352c0,1.81526 -1.64858,3.29883 -3.52734,3.29883c-1.86379,0 -3.35156,-1.48972 -3.35156,-3.35352c0,-1.86379 1.48777,-3.35156 3.35156,-3.35156c0.06314,0 0.1904,0.02075 0.4082,0.04688c0.28415,0.03406 0.56927,-0.05523 0.78323,-0.24529c0.21396,-0.19006 0.33624,-0.46267 0.33591,-0.74885v-4.20117c-0.00005,-0.528 -0.41054,-0.965 -0.9375,-0.99805c-0.15583,-0.0098 -0.35192,-0.0293 -0.58984,-0.0293c-5.24953,0 -9.52734,4.27782 -9.52734,9.52734c0,5.24953 4.27782,9.52734 9.52734,9.52734c5.24938,0 9.52734,-4.27782 9.52734,-9.52734v-9.04883c1.45461,1.16341 3.26752,1.90039 5.26953,1.90039c0.27306,0 0.53277,-0.01618 0.78125,-0.03906c0.51463,-0.04749 0.90832,-0.47927 0.9082,-0.99609v-4.66992c0.0003,-0.52448 -0.40463,-0.9601 -0.92773,-0.99805c-3.14464,-0.22561 -5.65141,-2.67528 -5.97852,-5.79102c-0.05305,-0.50925 -0.48214,-0.89619 -0.99414,-0.89648zM27.04102,12h2.28125c0.72678,3.2987 3.30447,5.8144 6.63672,6.44531v2.86523c-2.13887,-0.10861 -4.01749,-1.1756 -5.12305,-2.85742c-0.24284,-0.36962 -0.69961,-0.53585 -1.12322,-0.40877c-0.4236,0.12708 -0.71344,0.51729 -0.71272,0.95955v11.53516c0,4.16848 -3.35873,7.52734 -7.52734,7.52734c-4.16848,0 -7.52734,-3.35887 -7.52734,-7.52734c0,-4.00052 3.12077,-7.17588 7.05469,-7.43164v2.17578c-2.71358,0.25252 -4.87891,2.47904 -4.87891,5.25586c0,2.94421 2.40735,5.35352 5.35156,5.35352c2.92924,0 5.52734,-2.30609 5.52734,-5.29883c0,0.04892 0.00186,-1.25818 0.00586,-3.09961c0.0039,-1.84143 0.01037,-4.28722 0.01563,-6.73047c0.0094,-4.3869 0.0177,-7.91447 0.01953,-8.76367z"></path></g></g></svg>
